brandFactory_export/2.Regular/Fuego llama_2Regular.svg

<?xml version="1.0" encoding="UTF-8"?>
<svg width="24px" height="24px" viewBox="0 0 24 24" version="1.1" xmlns="http://www.w3.org/2000/svg" xmlns:xlink="http://www.w3.org/1999/xlink">
    <title>2.Regular/Fuego llama_2Regular</title>
    <g id="Symbols" stroke="none" stroke-width="1" fill="none" fill-rule="evenodd">
        <g id="2.Regular/Fuego-llama_2Regular" fill="#5CB615" fill-rule="nonzero">
            <path d="M15.3983193,20.0168067 C14.7697479,20.594958 14.0504202,21.0655462 13.2705882,21.4117647 C14.9243697,18.7495798 13.4016807,14.887395 11.4823529,13.1966387 C10.594958,12.4134454 9.53613445,11.8386555 8.50420168,11.5731092 C8.11764706,11.4756303 7.72436975,11.7142857 7.6302521,12.1008403 C7.59327731,12.2521008 7.60672269,12.410084 7.66386555,12.5512605 C7.67058824,12.5714286 8.4907563,14.6386555 6.64201681,16.087395 C6.34285714,16.3159664 6.07058824,16.5714286 5.82857143,16.8504202 C4.87058824,17.9563025 4.59495798,19.502521 5.11596639,20.8705882 C4.3092437,20.3798319 3.58319328,19.7680672 3.00168067,19.0252101 C-0.487394958,14.5647059 2.60840336,7.3512605 6.27226891,4.34285714 C7.61680672,3.23361345 9.1394958,2.3697479 10.7798319,1.78151261 C10.3697479,3.78823529 10.2655462,7.59663866 14.2151261,10.487395 C14.7563025,10.8739496 15.2571429,11.3109244 15.6941176,11.7815126 C16.7764706,12.9378151 17.3378151,14.4268908 17.2840336,15.9697479 C17.2268908,17.512605 16.5579832,18.9478992 15.3983193,20.0168067 M8.47394958,22.0638655 C8.46722689,22.0638655 7.70756303,21.9294118 7.02184874,21.2504202 C6.08403361,20.3260504 6.03697479,18.8134454 6.90756303,17.8117647 C7.08571429,17.6067227 7.2907563,17.4151261 7.51932773,17.2403361 C8.97815126,16.0941176 9.33781513,14.6016807 9.28403361,13.4218487 C9.73445378,13.6605042 10.1546218,13.9495798 10.5378151,14.2890756 C12.0336134,15.6067227 13.3546218,18.887395 11.9394958,20.8268908 C11.3613445,21.610084 10.4638655,22.0941176 9.49243697,22.1512605 C9.4487395,22.1512605 9.40168067,22.1546218 9.35798319,22.1512605 C9.28067227,22.1546218 9.2,22.1512605 9.11932773,22.1478992 C8.92436975,22.1344538 8.73613445,22.1008403 8.54453782,22.0773109 C8.52436975,22.0705882 8.49747899,22.0705882 8.47394958,22.0638655 M16.7428571,10.7865546 C16.2285714,10.2386555 15.6638655,9.74453782 15.0521008,9.30756303 C10.4336134,5.93277311 12.4033613,1.21680672 12.487395,1.01848739 C12.5983193,0.766386555 12.5579832,0.47394958 12.3831933,0.262184874 C12.2084034,0.0504201681 11.9294118,-0.043697479 11.6638655,0.0201680672 C9.48571429,0.537815126 7.24705882,1.67731092 5.36134454,3.22352941 C1.15294118,6.68235294 -2.21176471,14.712605 1.87226891,19.9327731 C3.48907563,22 5.99327731,23.2907563 8.62184874,23.5663866 C8.84369748,23.5966387 9.06218487,23.6201681 9.28067227,23.6201681 C9.33109244,23.6201681 9.37815126,23.6134454 9.42521008,23.610084 C9.5092437,23.6134454 9.59327731,23.6235294 9.67731092,23.6235294 C10.4067227,23.6235294 11.1327731,23.5462185 11.8487395,23.3815126 C11.9462185,23.3680672 14.2655462,23.0285714 16.3663866,21.0890756 C17.8117647,19.7579832 18.6487395,17.9596639 18.7193277,16.0268908 C18.7932773,14.0907563 18.0907563,12.2285714 16.7428571,10.7865546" id="Fuego-llama_2Regular"></path>
        </g>
    </g>
</svg>

<svg width="24" height="24" viewBox="0 0 24 24" xmlns="http://www.w3.org/2000/svg"><path d="M15.398 20.017a7.844 7.844 0 01-2.127 1.395c1.653-2.662.13-6.525-1.789-8.215-.887-.784-1.946-1.358-2.978-1.624a.72.72 0 00-.84.978c.007.02.827 2.088-1.022 3.536a5.48 5.48 0 00-.813.763 3.98 3.98 0 00-.713 4.02 7.83 7.83 0 01-2.114-1.845c-3.49-4.46-.394-11.674 3.27-14.682a15.067 15.067 0 014.508-2.561c-.41 2.006-.514 5.815 3.435 8.705a9.787 9.787 0 011.48 1.295 5.802 5.802 0 011.589 4.188c-.057 1.543-.726 2.978-1.886 4.047m-6.924 2.047c-.007 0-.766-.135-1.452-.814-.938-.924-.985-2.437-.114-3.438.178-.205.383-.397.611-.572 1.46-1.146 1.819-2.638 1.765-3.818.45.239.87.528 1.254.867 1.496 1.318 2.817 4.598 1.401 6.538a3.28 3.28 0 01-2.447 1.324c-.043 0-.09.004-.134 0-.077.004-.158 0-.239-.003-.195-.014-.383-.047-.574-.07-.02-.007-.048-.007-.071-.014m8.269-11.277a11.418 11.418 0 00-1.69-1.48c-4.62-3.374-2.65-8.09-2.566-8.289a.727.727 0 00-.104-.756.716.716 0 00-.72-.242C9.487.538 7.248 1.677 5.362 3.224 1.153 6.682-2.212 14.713 1.872 19.933 3.49 22 5.993 23.29 8.622 23.566c.222.03.44.054.659.054.05 0 .097-.007.144-.01.084.003.168.014.252.014.73 0 1.456-.078 2.172-.242.097-.014 2.417-.353 4.517-2.293 1.446-1.331 2.283-3.13 2.353-5.062.074-1.936-.628-3.798-1.976-5.24" fill="#5CB615" fill-rule="nonzero"/></svg>
